X: 6
T: Far From Home
I: Far From Home	R-43	G	reel
M: C|
R: reel
K: G
D2| "G"GEDE G2GA| B2BA Bcd2|    GEDE    G2GB| "Am"AGAB "D"AGEF|
    "G"GEDE G2GA| B2BA Bcd2| "C"edef "G"gedc| "D"BGAF "G"G2 :|
|:d2| "Em"g2ge "D"f2fd| "C"edef "G"edBd| gedB G2B2| "Am"AGAB AG E2|
     "G"GEDE G2 GA| B2BA Bcd2| "C"edef "G"gedc| "D"BGAF "G"G2 :|
%%text Roaring Jelly  R-43

